X:360
T: SCHON WIEDER TOENT VOM SCHACHTE HER
N: E1531
O: Europa, Mitteleuropa, Deutschland; Frankreich, Elsass, Lembach
R: Staende -, Bergmanns - Lied
M: 2/4
L: 1/16
K: Bb
F2D2E2 | F6F2 | G2A2B4 | z6
B2 | A2c2B2G2 | G4F4 | z2
F2D2E2 | F6F2 | G2A2B4 | z6
B2 | A2c2B2G2 | G4F4 | z2
F2c2B2 | A6F2 | d2c2B4 | z2
F2c2B2 | A6F2 | d2c2B2
F2 | B3Bc2d2 | e4
c4 | d8 | c8 | B8 | z2

@@@ Tune index: 5044
